X:1
T:He Is Coming
T:He Is Coming
T:Haldor Lillenas
T:Haldor Lillenas, 1909
T:Public Domain Courtesy of the Cyber Hymnal™
T:Public Domain Courtesy of the Cyber Hymnal™
C:Haldor Lillenas
Z:Public Domain
Z:Courtesy of the Cyber Hymnal™
%%score ( 1 2 ) ( 3 4 )
L:1/8
Q:1/4=82
M:4/4
K:Ab
V:1 treble 
V:2 treble 
V:3 bass 
V:4 bass 
V:1
 [CE][CA] | [Ec]>[Ec] [Fd]>[Ec] [Ec][DB] [DE]>[DG] | [DB]>[DB] [Ec]>[DB] [CA]2 [CA][CG] | %3
w: 1.~I am|watch- ing for the com- ing of my|Sav- ior and my king, What a|
w: 2.~When the|fig trees’ leaf ap- pears, we know that|sum- mer draw- eth nigh, From the|
w: 3.~I am|rea- dy now to meet Him, for my|lamp is burn- ing bright, From all|
 [DF]>[DF] [EF]>[EF] [=DF]>[DB] [DB]>[Dc] | B6 [DE]2 [CE][CA] | %5
w: joy- ous hap- py meet- ing that will|be! I am wait-|
w: bond- age of the win- ter it is|free; As the light-|
w: earth- ly ties and bond- age I am|free; He may be|
 [Ec]>[Ec] [Fd]>[Ec] [Ec][DB] [DE]>[DG] | [DB]>[DB] [Ec]>[DB] [CA]2 [DG]>[DF] | %7
w: * ing ev- ery day to hear the|trump- et’s aw- ful ring, When the|
w: * ning shin- eth forth a- cross the|dark and storm- y sky, So the|
w: * here ere the morn- ing, yes, per-|haps be- fore the night, Then for-|
 [CE]>[CE] [CA]>[Ec] [DB]>[DB] [DF]>[DG] | [CA]4 z2 ||"^Refrain" E>A | c4- ([Ac][EB]) [FA]>[DF] | %11
w: Son of Man shall come in ma- jes-|ty.|He is|com- He * is com-|
w: com- ing of the Son of Man shall|be.|||
w: ev- er with the Sav- ior I shall|be.|||
 E4 A2 [CA]>[DB] | [Ec]>[Ec] [Ec]>[Ec] [=Dc]>[DB] [DA][Dc] | (D z [DEB]2) [CE]>[CA] x2 | %14
w: ing, He is com-|ing soon to catch a- way His bride;|He * is com-|
w: |||
w: |||
 c4- ([Ec][Ec]) [DB]>[Ec] | d4 F2 [DG]>[DF] | [CE]>[CE] [CA]>[Ec] [DB]>[DB] [DF]>[DG] | %17
w: * He * * is|com- ing, O how|hap- py will my place be at His|
w: |||
w: |||
 (z [CA]2) x4 |] %18
w: |
w: |
w: |
V:2
 x2 | x8 | x8 | x8 | DDGF x6 | x8 | x8 | x8 | x6 || x2 | (AAAA) x4 | (CCCC) (CC) x2 | x8 | %13
 x [DB]4- GF x | (EEEE) x4 | (FFFF) (DD) x2 | x8 | [CA]4 CDD |] %18
V:3
 [A,,A,][A,,A,] | [A,,A,]>[A,,A,] [A,,A,]>[A,,A,] [E,G,][E,G,] [E,G,]>[E,G,] | %2
w: ~ ~|~ ~ ~ ~ ~ ~ ~ ~|
 [E,G,]>[E,G,] [E,A,]>[E,G,] [A,,A,]2 [C,A,][C,A,] | %3
w: ~ ~ ~ ~ ~ ~ ~|
 [D,A,]>[D,A,] [C,=A,]>[C,A,] [B,,B,]>[B,,B,] [B,,B,]>[B,,_A,] | (z [E,G,]2) [A,,A,] [A,,A,] x5 | %5
w: ~ ~ ~ ~ ~ ~ ~ ~|* ~ ~|
 [A,,A,]>[A,,A,] [A,,A,]>[A,,A,] [E,G,][E,G,] [E,G,]>[E,G,] | %6
w: * ~ ~ ~ ~ ~ ~ ~|
 [E,G,]>[E,G,] [E,A,]>[E,G,] [A,,A,]2 [D,A,]>[D,A,] | %7
w: ~ ~ ~ ~ ~ ~ ~|
 [E,A,]>[E,A,] [E,A,]>[E,A,] [E,G,]>[E,G,] [E,G,]>[E,G,] | [A,,A,]4 z2 || z2 | %10
w: ~ ~ ~ ~ ~ ~ ~ ~|~||
 [A,,C][A,,C][A,,C][A,,C] [A,,C][A,,C] [D,A,]>[F,A,] | A,A,A,A, A,A, [A,,A,]>[A,,A,] | %12
w: ~ ~ Com- ing, He is com- ing,|He is com- ing, He is com- ing,|
 [A,,A,]>[A,,A,] [A,,A,]>[A,,A,] [B,,A,]>[B,,A,] [B,,A,][B,,A,] | %13
w: ~ ~ ~ ~ ~ ~ ~ ~|
 z A,-B,A, [E,G,]2 [A,,A,]>[A,,A,] | [A,,A,][A,,A,][A,,A,][A,,A,] [A,,A,][A,,A,] [B,,A,]>[C,A,] | %15
w: ~ ~ ~ way His bride;|* He is com- ing, He is com-|
 [D,B,][D,B,][D,B,][D,B,] [D,B,][D,B,] [D,A,]>[D,A,] | %16
w: ing, He is com- ing, He is com-|
 [E,A,]>[E,A,] [E,A,]>[E,A,] [E,G,]>[E,G,] [E,G,]>[E,G,] | z E,F,F, [A,,E,A,]2 x |] %18
w: * ing, ~ ~ ~ ~ ~ ~|~ ~ ~ be|
V:4
 x2 | x8 | x8 | x8 | [E,G,]6 G,A,G, x | x8 | x8 | x8 | x6 || x2 | x8 | A,A,A,A, A,A, x2 | x8 | %13
 [E,-G,]4 x4 | x8 | x8 | x8 | [A,,-A,]4 x3 |] %18

